packages/match-icons/product/svg/sdk.svg

<svg fill="none" height="32" viewBox="0 0 32 32" width="32" xmlns="http://www.w3.org/2000/svg"><g fill="#394762"><path d="m16 16.82c-.3969.0009-.7893-.0844-1.15-.25l-12.75997-6c-.39761-.1832-.73441-.4764-.97048-.84505-.236083-.36864-.361554-.79722-.361554-1.23498 0-.43775.125471-.86634.361554-1.23498.23607-.36864.57287-.66189.97048-.84502l12.75997-5.999997c.3601-.168002.7527-.255066 1.15-.255066.3974 0 .7899.087064 1.15.255066l12.76 5.999997c.3976.18313.7344.47638.9705.84502s.3616.79723.3616 1.23498c0 .43776-.1255.86634-.3616 1.23498-.2361.36865-.5729.66185-.9705.84505l-12.76 6c-.3607.1656-.7531.2509-1.15.25zm-13.05997-8.59003c-.05428.02128-.10089.05842-.13374.10659-.03286.04816-.05043.10511-.05043.16341 0 .05831.01757.11525.05043.16342.03285.04816.07946.08531.13374.10658l12.75997 6.00003c.0951.0396.197.06.3.06s.205-.0204.3-.06l12.76-6.00003c.0543-.02127.1009-.05842.1338-.10658.0328-.04817.0504-.10511.0504-.16342 0-.0583-.0176-.11525-.0504-.16341-.0329-.04817-.0795-.08531-.1338-.10659l-12.76-6c-.095-.0396-.197-.06-.3-.06s-.2049.0204-.3.06z"/><path d="m16.1201 23.8199c-.3868-.0033-.7685-.0885-1.12-.25l-13.54005-6.31c-.2222-.122-.38977-.3238-.468804-.5647s-.063634-.5028.043084-.7327c.10672-.23.29679-.4108.53176-.506.23498-.0951.49732-.0975.73396-.0066l13.52005 6.31c.095.0397.197.06.3.06.1029 0 .2049-.0203.3-.06l13.28-6.1999c.2366-.091.4989-.0886.7339.0065.235.0952.4251.276.5318.506.1067.2299.1221.4918.0431.7327-.0791.2409-.2466.4427-.4688.5648l-13.28 6.1999c-.3569.1667-.7462.2521-1.14.25z"/><path d="m16.1201 30.8199c-.3868-.0033-.7685-.0885-1.12-.25l-13.54005-6.31c-.2222-.122-.38977-.3238-.468804-.5647s-.063634-.5028.043084-.7327c.10672-.23.29679-.4108.53176-.506.23498-.0951.49732-.0975.73396-.0066l13.52005 6.31c.095.0397.197.06.3.06.1029 0 .2049-.0203.3-.06l13.28-6.2c.2366-.0909.4989-.0885.7339.0066.235.0952.4251.276.5318.506.1067.2299.1221.4918.0431.7327-.0791.2409-.2466.4427-.4688.5647l-13.28 6.2c-.3569.1667-.7462.2521-1.14.25z"/></g></svg>

<svg width="32" height="32" viewBox="0 0 32 32" fill="none" xmlns="http://www.w3.org/2000/svg">
<path d="M16 16.82C15.6031 16.8209 15.2107 16.7356 14.85 16.57L2.09003 10.57C1.69242 10.3868 1.35562 10.0936 1.11955 9.72495C0.883467 9.35631 0.757996 8.92773 0.757996 8.48997C0.757996 8.05222 0.883467 7.62363 1.11955 7.25499C1.35562 6.88635 1.69242 6.5931 2.09003 6.40997L14.85 0.409973C15.2101 0.241971 15.6027 0.154907 16 0.154907C16.3974 0.154907 16.7899 0.241971 17.15 0.409973L29.91 6.40997C30.3076 6.5931 30.6444 6.88635 30.8805 7.25499C31.1166 7.62363 31.2421 8.05222 31.2421 8.48997C31.2421 8.92773 31.1166 9.35631 30.8805 9.72495C30.6444 10.0936 30.3076 10.3868 29.91 10.57L17.15 16.57C16.7893 16.7356 16.3969 16.8209 16 16.82ZM2.94003 8.22997C2.88575 8.25125 2.83914 8.28839 2.80629 8.33656C2.77343 8.38472 2.75586 8.44167 2.75586 8.49997C2.75586 8.55828 2.77343 8.61522 2.80629 8.66339C2.83914 8.71155 2.88575 8.7487 2.94003 8.76997L15.7 14.77C15.7951 14.8096 15.897 14.83 16 14.83C16.103 14.83 16.205 14.8096 16.3 14.77L29.06 8.76997C29.1143 8.7487 29.1609 8.71155 29.1938 8.66339C29.2266 8.61522 29.2442 8.55828 29.2442 8.49997C29.2442 8.44167 29.2266 8.38472 29.1938 8.33656C29.1609 8.28839 29.1143 8.25125 29.06 8.22997L16.3 2.22997C16.205 2.19037 16.103 2.16997 16 2.16997C15.897 2.16997 15.7951 2.19037 15.7 2.22997L2.94003 8.22997Z" fill="#394762"/>
<path d="M16.1201 23.8199C15.7333 23.8166 15.3516 23.7314 15.0001 23.5699L1.46005 17.2599C1.23785 17.1379 1.07028 16.9361 0.991246 16.6952C0.912212 16.4543 0.927612 16.1924 1.03433 15.9625C1.14105 15.7325 1.33112 15.5517 1.56609 15.4565C1.80107 15.3614 2.06341 15.359 2.30005 15.4499L15.8201 21.7599C15.9151 21.7996 16.0171 21.8199 16.1201 21.8199C16.223 21.8199 16.325 21.7996 16.4201 21.7599L29.7001 15.56C29.9367 15.469 30.199 15.4714 30.434 15.5665C30.669 15.6617 30.8591 15.8425 30.9658 16.0725C31.0725 16.3024 31.0879 16.5643 31.0089 16.8052C30.9298 17.0461 30.7623 17.2479 30.5401 17.37L17.2601 23.5699C16.9032 23.7366 16.5139 23.822 16.1201 23.8199Z" fill="#394762"/>
<path d="M16.1201 30.8199C15.7333 30.8166 15.3516 30.7314 15.0001 30.5699L1.46005 24.2599C1.23785 24.1379 1.07028 23.9361 0.991246 23.6952C0.912212 23.4543 0.927612 23.1924 1.03433 22.9625C1.14105 22.7325 1.33112 22.5517 1.56609 22.4565C1.80107 22.3614 2.06341 22.359 2.30005 22.4499L15.8201 28.7599C15.9151 28.7996 16.0171 28.8199 16.1201 28.8199C16.223 28.8199 16.325 28.7996 16.4201 28.7599L29.7001 22.5599C29.9367 22.469 30.199 22.4714 30.434 22.5665C30.669 22.6617 30.8591 22.8425 30.9658 23.0725C31.0725 23.3024 31.0879 23.5643 31.0089 23.8052C30.9298 24.0461 30.7623 24.2479 30.5401 24.3699L17.2601 30.5699C16.9032 30.7366 16.5139 30.822 16.1201 30.8199Z" fill="#394762"/>
</svg>
